X: 7
T: The Burnt Old Man
R: jig
M: 6/8
L: 1/8
K: Gmaj
GBe dBG | BcB B2A | GBe dBG | ABA AGE |
GBe dBA | GBd g2a | bag (3efge | dBA AGE:||
g3 gab | ded dBd | a3 aga | bge edB |
g3 gab |dBd g2a | bag (3efg e | dBA AGE:||


Tune 1029	Setting 25163

